X: 11661
Q: "Strathspey and Song."
M: C
L: 1/16
K: A
E2 |\
e2 |\
fedc ac3 ec3e3a | {f}e3ca3g/a/ bB3Ba3 |
fedc a3c {f}e3cfa3 | gb3a3f c4 ca3 |\
fedc ac3 ec3e3a | e3ca3g/a/ b3BB2cd |\
ec3BG3 A3cGB3 | F3AEA3 C4 C2 |]


